dist/svg/desktop.svg

<!-- Generated by Trend Micro Style Portal -->
<svg version="1.1" xmlns="http://www.w3.org/2000/svg" width="16" height="16" viewBox="0 0 16 16">
  <title>desktop</title>
  <path fill="rgb(34,34,34)" d="M15 0h-14c-0.552 0-1 0.448-1 1v11c0 0.552 0.448 1 1 1h6v0.5l-2.75 1.57c-0.148 0.089-0.245 0.248-0.245 0.43 0 0.274 0.221 0.497 0.495 0.5h7c0.274-0.003 0.495-0.226 0.495-0.5 0-0.181-0.096-0.34-0.241-0.428l-0.002-0.001-0.002-0.001-2.75-1.57v-0.5h6c0.552-0 1-0.448 1-1v-11c-0-0.552-0.448-1-1-1h-0zM2 2h12v9h-12z"></path>
</svg>

<svg width="16" height="16" viewBox="0 0 16 16" fill="rgb(34, 34, 34)" xmlns="http://www.w3.org/2000/svg"><title>desktop</title><path d="M15 0H1C0.448 0 0 0.448 0 1V12C0 12.552 0.448 13 1 13H7V13.5L4.25 15.07C4.102 15.159 4.005 15.318 4.005 15.5C4.005 15.774 4.226 15.997 4.5 16H11.5C11.774 15.997 11.995 15.774 11.995 15.5C11.995 15.319 11.899 15.16 11.754 15.072L11.752 15.071L11.75 15.07L9 13.5V13H15C15.552 13 16 12.552 16 12V1C16 0.448 15.552 0 15 0ZM2 2H14V11H2V2Z" fill="rgb(34, 34, 34)" fill-opacity="1.00"/></svg>
